X:21
T:La voyageuse
R:matelotte
N:
O:France
A:Toulon
Z:<anamnese@laposte.net> -- http://anamnese.fr.st
M:2/4
L:1/8
Q:1/4=120
K:F
c/>=B/c/>a/ ff | g/>f/e/>d/ ca | c/>=B/c/>a/ ff | e/>c/d/>e/ f2 ::
c/=B/_B/G/ FA | G/>A/B/>G/ dc | c/=B/_B/G/ FA | G/>c/d/>e/ f2 ::
BF dB | (6f/e/d/c/B/c/ gf | BF dB | (6f/e/d/c/d/c/ B2 :|
